X: 7888
T: Con Cassidy's
R: jig
M: 6/8
K: Gmajor
B^AB cBc|dBg d2 g|fed cAF|GDg d2 c|
B^AB cBc|dBg d2 g|fed cAF|G3:|
gGG fGG|efg d2 c|BA^G Aa=g|fe^d efg|
a2 f gfe|fed ff/g/a|gfe def|gGG:|

